symbols/web/local_post_office/materialsymbolsoutlined/local_post_office_wght600gradN25fill1_48px.svg

<svg xmlns="http://www.w3.org/2000/svg" height="48" width="48"><path d="M5.6 44.4q-.85 0-1.45-.6t-.6-1.5V27.25q0-.9.6-1.5t1.45-.6h6.15V15.5q0-5 3.575-8.5T24 3.5h8.6q4.95 0 8.425 3.525Q44.5 10.55 44.5 15.5v28.9h-3.9v-5.65h-8.7v3.55q0 .95-.75 1.525t-1.75.575Zm26.3-9.5h8.7V15.55q0-3.4-2.3-5.8t-5.7-2.4H24q-3.45 0-5.925 2.35-2.475 2.35-2.475 5.8v9.65h13.8q.95 0 1.725.575.775.575.775 1.525ZM20.05 19.15v-2.9H36.2v2.9Zm-2.35 18.4 10.3-5.9V29l-10.3 5.9L7.4 29v2.65Z"/></svg>

<svg xmlns="http://www.w3.org/2000/svg" height="48" width="48"><path d="M5.6 44.4Q4.75 44.4 4.15 43.8Q3.55 43.2 3.55 42.3V27.25Q3.55 26.35 4.15 25.75Q4.75 25.15 5.6 25.15H11.75V15.5Q11.75 10.5 15.325 7Q18.9 3.5 24 3.5H32.6Q37.55 3.5 41.025 7.025Q44.5 10.55 44.5 15.5V44.4H40.6V38.75H31.9V42.3Q31.9 43.25 31.15 43.825Q30.4 44.4 29.4 44.4ZM31.9 34.9H40.6V15.55Q40.6 12.15 38.3 9.75Q36 7.35 32.6 7.35H24Q20.55 7.35 18.075 9.7Q15.6 12.05 15.6 15.5V25.15H29.4Q30.35 25.15 31.125 25.725Q31.9 26.3 31.9 27.25ZM20.05 19.15V16.25H36.2V19.15ZM17.7 37.55 28 31.65V29L17.7 34.9L7.4 29V31.65Z"/></svg>
